X: 49
T:Buttered Peas
% Nottingham Music Database
S:Lesley Dolman, via EF
M:2/2
K:G
dc|:"G"B2D2 B2AB|"D7"c2D2 c3A|"D7"F2d2 FGAB|"D7"d2A2 d3c|
"G"B2D2 B2AB|"C"c2d2 e4|"G"d2g2 "D7"fgaf|"G"g2g2 g4:||:
"G"d2g2 gfed|"Am"c2c2 c4|"D7"c2a2 agfe|"G"d2d2 "D7"d2ef|"G"g2g2 g2g2|\
"C"c2d2 e4|"G"d2g2 "D7"fgaf|"G"g2g2 g4:|


